X: 1
T: Corazon Espinado
C: Carlos Santana
M: 4/4
K: B minor
L: 1/8
"Bm" B,2 FB,- B,G z_A,- | "F#7" A,C FA, CF ^Ac | "Bm" B,D FB,- B,D F^A,- | "F#7" A,C GF zF/2A/2 B/2d/2B/2A/2 |
"Bm" B4- Bd fb | "F#7" ^a2 f e2 d ff- | "Bm" f8 | "F#7" ec de zF/2A/2 B/2d/2B/2A/2 |
"Bm" B4- Bd fb | "F#7" ^a2 f e2 d ff- | "Bm" f8 | "F#7" ec de- ed cc- cB ||
"Bm" zd dd d3 d | "F#7" dc dc z4 | "Bm" zB Bc de dc | "F#7" c2 z6 |
w: Es-ta mu-jer me~es- | ta ma-tan-do | me~a e-spi-na-do~el cora- | zon |
"Bm" zB fd fd cd | "F#7" ec z4 zB | "Bm" dd z2 ze dc | "F#7" c2 z6 |
w: Por mas que tra-ta~de ol-vi- | dar-la mi | al-ma no da re- | son |
"Bm" zB cd (3 g2 g2 g2 | "F#7" gf z6 | "Bm" zd dd df de- | "F#7" ec z4 zB |
w: Mi co-ra-zon a-pla- | sta-do | he-ri-do~y a-ban-do-na- | * do a-|
"Bm" Bc d2 zd dB z2 | "F#7" fe de- ef- ff | "Bm" f2 z4 zf | "F#7" zf fe dc z2 |
w: ber a-ber, tu sabes | di-me mi~a mor * por fa- | vor que | do-lor nos quedo |
"Bm" B4 d4 | "F#7" c2 cc dc BB- | "Bm" BF ff ff zf | "F#7" ec de z4 |
w: Ah Ah | Ah co-ra-zon e-spi- | * na-do * * * * | * * * * |
"Bm" B4 d4 | "F#7" cc cc dc BB | "Bm" b4 b4 | "F#7" ba/2f/2 ef z4 |
w: Ah Ah | Ah co-mo me due-le~el a-mor | * * | * * * * * |
"Bm" z2 ff ff ff dc | "F#7" cd ez z4 | "Bm" zd dd df de- | "F#7" ec z2 zB BB |
w: Co-mo due-le co-mo due-le~el | co-ra-zon | co-mo nos tie-ne~en tre-ga- | * dos, pe-ro no~ol |
"Bm" BB BB zB fd | "F#7" ec de zf ff | "Bm" z4 zf ff | "F#7" ef ec z4 |
w: vi-des mu-jer que al-gun | di-a di-ras "Ay ay ay | co-mo me | due-le~el a-mor" |
|: "Bm" B4 d4 | "F#7" c2 cc dc BB- | "Bm" BF ff ff zf | "F#7" ec de z4 |
w: Ah Ah | Ah co-ra-zon e-spi- | * na-do * * * * | * * * * |
"Bm" B4 d4 | "F#7" cc cc dc BB | "Bm" b4 b4 | "F#7" ba/2f/2 ef z4 |
w: Ah Ah | Ah co-mo me due-le~el a-mor | * * | * * * * :|
"Em" z4 g2 g2 | g2 g2 a2 g2 | "Bm" fe d2 z4 | z8 |
w: Co-mo | due-le el ol- | vi- * do |
"Em" z4 g2 g2 | g2 g2 a2 g2 | "Bm" f2 z6 | z8 |
w: co-mo | due-le~el co-ra- | zon |
"D" z2 za a2 a2 | a2 a2 g2 f2 | "A" ed c2 z4 | z8 |
w: co-mo me | due-le es-tar | vi- * vo |
"Em" z4 e2 e2 | e2 g2 g2 e2 | "F#7" f2 z6 | z8 |]
w: sin te- | ner a~un la do~a | mor
